X: 1
T: Pigeon On The Gate, The
Z: JACKB
S: https://thesession.org/tunes/517#setting26465
R: reel
M: 4/4
L: 1/8
K: Edor
|BE E2 BEdE|BE E2 dBAF|D2 (3FED ADFE|DEFA BAFA|
BE E2 BEdE|BE E2 B2 AF|D2 FA dfec|dBAF E4:|
|Beed efed|(3Bcd ef gedB|Addc d3B|A2 FE DEFA|
Beed efed|(3Bcd ef g2 fg|af (3gfe fd ec|dBAF E4:|

